X:1
T: Miss Jane Douglas
C:
R:Jig
Q:180
K:G
M:6/8
L:1/16
|:dc|B6 G2A2B2|A6 E2F2G2|F2E2F2 D2E2F2|G2A2B2 A2B2c2|
B2A2B2 G2A2B2|A6 E2F2G2|F2G2A2 D2E2F2|G6G4:|
|:B2|G4g2 g2d2B2|A2B2c2 G2A2B2|A6 a2b2a2|f2g2a2 d2e2f2|
|1G4g2 g2d2B2|B2c2d2 e2f2g2|d2c2B2 A2G2F2|G6G4:|
|2f2a2b2 a2f2d2|e2f2g2 f2d2B2|e2d2c2 B2c2A2|G6-G4||
